X: 11616
T: Eibhlí Gheal Chiúin Ní Chearbhaill
R: waltz
M: 3/4
K: Gmixolydian
"C" G3 A c2|"G" d4 cd|"C" e3 d c2|"G" d4 cd|
"C" e3 d c2|"Am" c3 A G2|"Em" G6-|G4:|
"Dm" d3 e f2|"G" g3 a g2|"C" g3 f e2|"G" d3 c A2|
"Dm" d3 e f2|"G" g3 a g2|"F" f6|"C" e2 d2 c2|
"Dm" d3 e f2|"G" g3 a g2|"C" g3 f e2|"G" d4 cd|
"C" e3 d c2|"Am" c3 A G2|"Em" G6-|G4||

